storage/app/icons/phosphoricons/bold/align-center-horizontal-bold.svg

<svg xmlns="http://www.w3.org/2000/svg" fill="currentColor" viewBox="0 0 256 256"><path d="M208 136h-68v-16h44a20 20 0 0 0 20-20V60a20 20 0 0 0-20-20h-44v-8a12 12 0 0 0-24 0v8H72a20 20 0 0 0-20 20v40a20 20 0 0 0 20 20h44v16H48a20 20 0 0 0-20 20v40a20 20 0 0 0 20 20h68v8a12 12 0 0 0 24 0v-8h68a20 20 0 0 0 20-20v-40a20 20 0 0 0-20-20M76 64h104v32H76Zm128 128H52v-32h152Z"/></svg>

<svg xmlns="http://www.w3.org/2000/svg" viewBox="0 0 256 256" fill="currentColor"><path d="M208,136H140V120h44a20,20,0,0,0,20-20V60a20,20,0,0,0-20-20H140V32a12,12,0,0,0-24,0v8H72A20,20,0,0,0,52,60v40a20,20,0,0,0,20,20h44v16H48a20,20,0,0,0-20,20v40a20,20,0,0,0,20,20h68v8a12,12,0,0,0,24,0v-8h68a20,20,0,0,0,20-20V156A20,20,0,0,0,208,136ZM76,64H180V96H76ZM204,192H52V160H204Z"/></svg>
